X:1
T:No. 3 In the Old Castle
T:No. 3 In the Old Castle
T:From "Poetic Tone Pictures", Op. 85
T:Anton Dvořák
C:Anton Dvořák
%%score { ( 1 3 5 ) | ( 2 4 ) }
L:1/8
Q:1/4=48
M:4/8
K:Eb
V:1 treble nm="Piano" snm="Pno."
V:3 treble 
V:5 treble 
V:2 bass 
V:4 bass 
V:1
!p!"^Lento" B | e_d!<(! B(3_G/A/B/!<)! |!p!!>(! _c2 B!>)!!p! E/F/ |!<(! _GF/G/!<)!!p!!>(! BB!>)! | %4
!p! [B,_D_G]3!pp! B | _gf!<(! _dB/d/ | e2!<)!!p! _d_G/B/ |!>(! _cB [B,_G]!>)!!pp![_DA] | %8
 [_DB]2[K:bass]!p!!>(! _F,2 | [=D,=F,]2!>)!!pp! _F,,2 | [=D,,=F,,]4 |[K:treble]!pp! z [e=g]3 | %12
 z [Be]3 | z [AB]3 |!<(! (3[AB]2!<)!!p! [AB]2 [AB]2 |!pp! z [_e=g]3 | z [Be]3 | %17
 z/ [AB]3/2- [AB] [=DB] | [=G,E]3!mf! B | e!<(!_d B(3_G/A/B/!<)! |!mf! !>!_c2 B E/F/ | %21
"_cresc." _GF/G/ _d.d/._c/ | [B,_D_GB]3 B |!f! _gf _dB/d/ |{/f} [_Ge]2 _dG/B/ | %25
!>(! _cB[B,_G][_DA] | [_DB]2!>)![K:bass]!p!!>(! _F,2 | [=D,=F,]2!>)!!pp! _F,,2 | [=D,,=F,,]4 | %29
[K:treble]!pp! z [eg][eg]!8va(! e'/8!<(!b'/8e''/8b'/8!<)!!mp!e'/8!>(!b'/8e'/8b/8!8va)!!>)! | %30
!pp! z _fe b/8!<(!e'/8b'/8e'/8!<)!!mp!b/8!>(!e'/8b/8e/8!>)! |!pp! z [A_c]3 | %32
!<(! (3[A_c]2!<)!!p! [Ac]2 [Ac]2 | %33
!pp! z [eg][eg]!8va(! e'/8!<(!b'/8e''/8b'/8!<)!!mp!e'/8!>(!b'/8e'/8b/8!8va)!!>)! | %34
!pp! z _fe b/8!<(!e'/8b'/8e'/8!<)!!mp!b/8!>(!e'/8b/8e/8!>)! |!pp! z/ [A_c]3/2- [Ac] B | [=G,E]4 | %37
!p! z E3 |[K:bass] z E3 |!<(! EF_GF | _DE!<)!!f!_FE |!<(! _C_D ED/C/!<)! | %42
!f! [_D,E,=G,B,]2 [_C,E,A,] z |[K:treble]!ff! z (3!^![Aa]/!^![__Ba__b]/!^![Aa]/ !^![A_ga]2 | %44
 z (3!^![A_fa]/!^![A_ga]/!^![Afa]/ !^![Aea]2 | %45
!<(! !arpeggio![A_d_fa][Bb]!arpeggio![_cea_c']!<)!!ff!!arpeggio![B_d_gb] | %46
 !arpeggio![_G_ce_g][Aa]!arpeggio![B_d_gb]!arpeggio![Ac_fa] | e=f _gf/e/ |!>(! b4!>)! | %49
!pp! z [_e=g]-[eg]!8va(! e'/8!<(!b'/8e''/8b'/8!<)!!mp!e'/8!>(!b'/8e'/8b/8!8va)!!>)! | %50
!pp! z _fe b/8!<(!e'/8b'/8e'/8!<)!!mp!b/8!>(!e'/8b/8e/8!>)! |!pp! z [A_c]3 | .[AB] .[AB]2 .[AB] | %53
!pp! z [gb]-[gb]!8va(! e'/8!<(!b'/8e''/8b'/8!<)!!mp!e'/8!>(!b'/8e'/8b/8!8va)!!>)! | %54
!pp! z [e_g]-[eg] b/8!<(!e'/8b'/8e'/8!<)!!mp!b/8!>(!e'/8b/8e/8!>)! | %55
!pp! z!<(!!8va(! _c'/8_f'/8_c''/8f'/8!<)!!mp!c'/8!>(!f'/8c'/8_f/8!8va)!!>)!!pp! z b/8!<(!e'/8b'/8e'/8!<)!!mp!b/8!>(!e'/8b/8e/8!>)! | %56
!pp! z!<(! _g/8_c'/8_g'/8c'/8!<)!!mp!g/8!>(!c'/8g/8_c/8!>)!!pp! z f/8!<(!b/8f'/8b/8!<)!!mp!f/8!>(!b/8f/8d/8!>)! | %57
!pp! z!<(! (6:4:6e/4b/4e'/4b/4e/4b/4 (6:4:6e/4B/4b/4e/4B/4e/4 (6:4:6B/4E/4e/4B/4E/4B/4 | %58
 (6:4:6E/4B,/4B/4E/4B,/4E/4[K:bass] (6:4:6B,/4E,/4E/4B,/4E,/4B,/4 (6:4:6E,/4B,,/4B,/4E,/4B,,/4E,/4 (6:4:6B,,/4E,,/4E,/4B,,/4E,,/4B,,/4!<)! | %59
[K:treble]!f! z4 | z2 z!ppp![Q:1/4=40] B | e_d B(3_G/A/B/ | _c2 BE/F/ | %63
 _G[Q:1/4=32][Q:1/4=32]"^poco rit."!<(!F/G/ AG/A/!<)! |!pp! !arpeggio!!fermata![B,EB]2 _d_c/d/ | %65
 [=G_Be]2 _d'_c'/d'/ | [=g_be']2!>(!!8va(! _d''_c''/d''/!>)! |!ppp! !arpeggio![e'=g'_b'e'']4 | %68
 !arpeggio![e'g'b'e'']4 | !arpeggio![g'b'e''g'']2!8va)! !arpeggio![gbe'g']2 | %70
 !arpeggio!!fermata![egbe']4 |] %71
V:2
 B, | E_D B,(3_G,/A,/B,/ | _C2 B, E,/-F,/ |!ped! _G,F,/G,/!ped-up!!ped! B,B,!ped-up! | %4
 [_G,,_D,_G,]3[K:treble] B, | [E_G][_DF][K:bass] [B,_D][_G,B,]/[B,D]/ | %6
 [_CE]2 [B,_D][E,_G,]/[G,B,]/ | [A,_C][_G,B,] E,[_D,F,] | [_G,,_G,]2 [_D,A,]2 | %9
 [B,,B,]2 [_D,,A,,]2 | [B,,,B,,]4 |!ped!{/!>!E,,,} E,, B,,2 B,,!ped-up! | %12
!ped!{/!>!E,,,} E,, B,,2 B,,!ped-up! |!ped!{/!>!E,,,} E,, B,,2 B,,!ped-up! | %14
!ped!{/!>!E,,,} E,, B,,2 B,,!ped-up! |!ped!{/!>!E,,,} E,, B,,2 B,,!ped-up! | %16
!ped!{/!>!E,,,} E,, B,,2 B,,!ped-up! |!ped!{/!>!E,,,} E,, B,,2 B,,!ped-up! | %18
!ped!{/!>!E,,,} E,, B,,2 B,!ped-up! | E_D B,(3_G,/A,/B,/ | !>!_C2 B, E,/F,/ | %21
 _G,F,/G,/ B,.B,/.A,/ |!ped! _G,3 x!ped-up! | [E_G][_DF] [B,D][_G,B,]/[B,D]/ | %24
{/F} [_CE]2 [B,_D][E,_G,]/[G,B,]/ | [A,_C][_G,B,]E,[_D,F,] | [_G,,_G,]2 [_D,A,]2 | %27
 [B,,B,]2 [_D,,A,,]2 | [B,,,B,,]4 |!ped!{/!>!E,,,} E,, B,,2 B,,!ped-up! | %30
!ped!{/!>!E,,,} E,, B,,2 B,,!ped-up! |!ped!{/!>!E,,,} E,, B,,2 B,,!ped-up! | %32
!ped!{/!>!E,,,} E,, B,,2 B,,!ped-up! |!ped!{/!>!E,,,} E,, B,,2 B,,!ped-up! | %34
!ped!{/!>!E,,,} E,, B,,2 B,,!ped-up! |!ped!{/!>!E,,,} E,, B,,2 B,,!ped-up! | %36
!ped!{/!>!E,,,} E,, B,,2 B,,!ped-up! | E,4 | E,4 | [A,,E,]2 [E,,B,,][F,,D,] | %40
 [_G,,B,,]2 [_D,,A,,][E,,_C,] | [_F,,A,,]2 [B,,,B,,]2 | [E,,,E,,]2 [A,,,A,,] z | %43
 !^![A,,A,]2 z (3!^![_G,A,_G]/!^![A,A]/!^![G,A,G]/ | %44
 !^![_F,A,_F]2 z (3!^![E,A,E]/!^![_F,A,_F]/!^![E,A,E]/ | %45
 A,B, !arpeggio![A,,E,_C]!arpeggio![B,,_G,_D] | _G,A, !arpeggio![_G,,_D,B,]!arpeggio![A,,_F,_C] | %47
 E=F !arpeggio![_C,=A,E]2 |!ped! !arpeggio![B,,_A,=D]4!ped-up! | %49
!ped!{/!>!E,,,} E,, B,,2 B,,!ped-up! |!ped!{/!>!E,,,} E,, B,,2 B,,!ped-up! | %51
!ped!{/!>!E,,,} E,, B,,2 B,,!ped-up! |!ped!{/!>!E,,,} E,, B,,2 B,,!ped-up! | %53
!ped!{/!>!E,,,} E,, B,,2 B,,!ped-up! |!ped!{/!>!E,,,} E,, B,,2 B,,!ped-up! | %55
!ped! E,,B,,!ped-up!!ped! E,,B,,!ped-up! |!ped! E,,B,,!ped-up!!ped! E,,B,,!ped-up! | %57
!ped! !arpeggio![E,,B,,]4- | [E,,B,,] z z2!ped-up! |!f! [E,,,E,,]4- | z2 z B, | %61
 E_D B,(3_G,/A,/B,/ | _C2 B,E,/F,/ | _G,F,/G,/ E,>F, |!ped! !arpeggio![E,,B,,E,=G,]2!ped-up! z2 | %65
!ped! E2!ped-up! z2 |[K:treble]!ped! e2!ped-up! z2 | %67
[K:bass]!ped! !fermata!z/!pp! .E,,/!>(!.B,,/.E,/ .G,/.B,/.E/.G/ | %68
[K:treble] .B/.G/.E/.G/ .B/.e/.g/.b/!ped-up!!>)! |!ppp!!ped! !arpeggio![ebe']2 !arpeggio![EBe]2 | %70
[K:bass] !arpeggio![E,,B,,G,]4!ped-up! |] %71
V:3
 x | x4 | x3 E | E2 [_DF]2 | x4 | B2 _GG | _G2 GE | E2 x2 | x2[K:bass] x2 | x4 | x4 | %11
[K:treble] x (3=c/=d/c/ B2 | x (3G/A/G/ _G2 | x (3F/_G/F/ _FE | (3=DE=E!>(! (3F_GF!>)! | %15
 x (3c/=d/c/ BB | x (3G/A/G/ _GG | x/ F/_G/F/ _F/E/D/=G/ | x4 | x4 | x3 E- | E2 [_DF]2 | x4 | %23
 B2 _GG | x2 _GE | E2 x2 | x2[K:bass] x2 | x4 | x4 |[K:treble] x (3c/=d/c/ B!8va(! z!8va)! | %30
 x (6:4:6A/4_c/4A/4c/4A/4c/4 [GB] z | x (3=F/_G/F/ _FE | (3=DE=E!>(! (3F_GF!>)! | %33
 x (3c/=d/c/ B!8va(! z!8va)! | x A/4_c/4A/4c/4[GB] z | x/ _G/=F/_F/ E/=D/-[D=G]/=F/ | x4 | %37
 x (3E/_F/E/ _D2 |[K:bass] x (3_C/_D/C/ B,2 | _C2 _G,A, | B,2 _F,_G, | A,2 [_F,A,]2 | x4 | %43
[K:treble] x4 | x4 | x4 | x4 | !arpeggio![_GB]2 _GF/E/ | B4 | x (3=c/=d/c/B!8va(! z!8va)! | %50
 x (6:4:6A/4_c/4A/4c/4A/4c/4 [GB] z | x (3=F/_G/F/ _FE | =D/E/ E/=E/ E/F/ _G/F/ | %53
 x e/4f/4e/4=d/4_d!8va(! z!8va)! | x (3_c/_d/c/B z | [A_c_f]!8va(! z!8va)! [=GBe] z | %56
 [E_G_c] z [DFAB] z | !arpeggio![=G,E=GB]4 | x[K:bass] x3 |[K:treble] x4 | x4 | x4 | x4 | %63
 E2 [_CE]>C | x2 [_G__B]2 | x2 [_g__b]2 | x2!8va(! [_g'__b']2 | x4 | x4 | x2!8va)! x2 | x4 |] %71
V:4
 x | x4 | x3 _C,- | [C,E,]2 [_D,F,]2 | x3[K:treble] x | x2[K:bass] x2 | x4 | x4 | x4 | x4 | x4 | %11
 E,,4 | E,,4 | E,,4 | E,,4 | E,,4 | E,,4 | E,,4 | E,,4 | x4 | x3 _C,- | C,2 _D,2 | _G,_D,_G,, B, | %23
 x4 | x4 | x4 | x4 | x4 | x4 | E,,4 | E,,4 | E,,4 | E,,4 | E,,4 | E,,4 | E,,4 | E,,4 | E,3 _D, | %38
 _C,3 B,, | x4 | x4 | x4 | x4 | x4 | x4 | !arpeggio![_D,_F]2 x2 | !arpeggio![_C,E]2 x2 | %47
 !arpeggio![B,,_G,]2 x2 | x4 | E,,4 | E,,4 | E,,4 | E,,4 | E,,4 | E,,4 | E,,2 E,,2 | E,,2 E,,2 | %57
 x4 | x4 | x4 | [E,,,E,,]4- | [E,,,E,,]4- | [E,,,E,,]3 z | _C,2 A,,>_D, | x4 | x4 |[K:treble] x4 | %67
[K:bass] x4 |[K:treble] x4 | x4 |[K:bass] x4 |] %71
V:5
 x | x4 | x4 | x4 | x4 | x4 | x4 | x4 | x2[K:bass] x2 | x4 | x4 |[K:treble] x4 | x4 | x4 | x4 | %15
 x4 | x4 | x4 | x4 | x4 | x4 | x4 | x4 | x4 | x4 | x4 | x2[K:bass] x2 | x4 | x4 | %29
[K:treble] x3!8va(! x!8va)! | x4 | x4 | x4 | x3!8va(! x!8va)! | x4 | x4 | x4 | x4 |[K:bass] x4 | %39
 x4 | x4 | x4 | x4 |[K:treble] x4 | x4 | x4 | x4 | x2 =A2 | %48
 =d/4B/4g/4f/4 d/4B/4_A/4F/4 D/4[I:staff +1]B,/4A,/4F,/4 D,/4B,,/4A,,/4F,,/4 | x3!8va(! x!8va)! | %50
 x4 | x4 | x4 | x3!8va(! x!8va)! | x4 | x!8va(! x!8va)! x2 | x4 | x4 | x[I:staff -1][K:bass] x3 | %59
[K:treble] x4 | x4 | x4 | x4 | x4 | x4 | x4 | x2!8va(! x2 | x4 | x4 | x2!8va)! x2 | x4 |] %71

